images/icons/facebook_icon_small.svg

<svg width="25" height="25" viewBox="0 0 25 25" fill="none" xmlns="http://www.w3.org/2000/svg">
<path d="M14.5584 8.09307H15.7987V5.99515C15.1982 5.93271 14.5948 5.90188 13.991 5.90279C12.1966 5.90279 10.9695 6.99793 10.9695 9.00349V10.732H8.94415V13.0806H10.9695V19.0972H13.3973V13.0806H15.416L15.7195 10.732H13.3973V9.23439C13.3973 8.54168 13.582 8.09307 14.5584 8.09307Z" fill="white"/>
</svg>

<svg xmlns="http://www.w3.org/2000/svg" width="25" height="25" fill="none"><path fill="#fff" d="M14.558 8.093h1.24V5.995a17.23 17.23 0 0 0-1.808-.092c-1.794 0-3.021 1.095-3.021 3.101v1.729H8.944v2.349h2.025v6.017h2.428v-6.017h2.019l.303-2.349h-2.322V9.234c0-.693.185-1.141 1.161-1.141z"/></svg>
